X:6
T:Gavotte d'Yves Haire ton double - F
C:Jo\"el Huby
P:F4
Q:C3=156
M:12/8
K:C
P:F
%%MIDI gchord fzzczzfzcfzz
%%MIDI chordprog 105
%%MIDI chordvol 40
%%MIDI bassprog 36
%%MIDI program 73
|: "E"e2 "e"g "C"e2 "a"d "E"c2 "e"B "E"A3 |"e"e2 "E"d "e"g2 "C"f "a"e3 "A"e3 :|
|: "a"e2 "D"g "g"e2 "E"d "e"c2 "C"B "a"A3 |"C"A"a"B"A"c "a"d2 "D"e "g"d2 "C"c "g"B3 | "A"e2 "g"g "G"e2 "g"d |"D"c2 "g"B "C"A3 |"g"c"G"B"g"A "C"B2 "a"^G |"D"A3 "g"A3 :|

